public/assets/formheimur/leikvollur.svg

<svg viewBox="0 0 375 272" fill="none" xmlns="http://www.w3.org/2000/svg" class="formheimur-leikvollur"><style>.formheimur-leikvollur{--litur1: var(--theme-color-primary, #dcddde);--litur2: var(--theme-color-secondary, #ebeced)}[data-color-theme=trustworthy] .formheimur-leikvollur{--litur1: var(--theme-color-tertiary);--litur2: var(--theme-color-primary)}[data-color-theme=friendly] .formheimur-leikvollur{--litur2: var(--theme-color-tertiary)}</style><path d="M375 0H0v272h375V0z" fill="var(--litur1)"/><path d="M375 193H0v17h375v-17zm-187-90c-27.45 0-53.47-10.79-73.26-30.37C94.92 53.02 84 27.23 84 0h20c0 21.84 8.81 42.59 24.81 58.41C144.83 74.27 165.85 83 188 83s43.17-8.73 59.19-24.59C263.19 42.59 272 21.84 272 0h20c0 27.22-10.92 53.02-30.74 72.63C241.47 92.22 215.45 103 188 103z" fill="#fff"/><path d="M315.5 199c10.77 0 19.5-8.73 19.5-19.5s-8.73-19.5-19.5-19.5-19.5 8.73-19.5 19.5 8.73 19.5 19.5 19.5z" fill="var(--litur2)"/></svg>

<svg viewBox="0 0 375 272" fill="none" xmlns="http://www.w3.org/2000/svg" class="formheimur-leikvollur"><style>.formheimur-leikvollur {
		--litur1: var(--theme-color-primary, #dcddde);
		--litur2: var(--theme-color-secondary, #ebeced);
	}

	/* Frávik */
	[data-color-theme=&apos;trustworthy&apos;] .formheimur-leikvollur {
		--litur1: var(--theme-color-tertiary);
		--litur2: var(--theme-color-primary);
	}
	[data-color-theme=&apos;friendly&apos;] .formheimur-leikvollur {
		--litur2: var(--theme-color-tertiary);
	}</style><path d="M375 0H0V272H375V0Z" fill="var(--litur1)"/><path d="M375 193H0V210H375V193Z" fill="white"/><path d="M188 103C160.55 103 134.53 92.21 114.74 72.63C94.92 53.02 84 27.23 84 0H104C104 21.84 112.81 42.59 128.81 58.41C144.83 74.27 165.85 83 188 83C210.15 83 231.17 74.27 247.19 58.41C263.19 42.59 272 21.84 272 0H292C292 27.22 281.08 53.02 261.26 72.63C241.47 92.22 215.45 103 188 103Z" fill="white"/><path d="M315.5 199C326.27 199 335 190.27 335 179.5C335 168.73 326.27 160 315.5 160C304.73 160 296 168.73 296 179.5C296 190.27 304.73 199 315.5 199Z" fill="var(--litur2)"/></svg>
